X:1
T:Title
%%score { 1 | 2 }
L:1/8
Q:1/4=106
M:4/4
K:G
V:1 treble nm="Grand Piano"
V:2 bass 
V:1
 G2 A2 B2 [Gc]2 | [G^c]2 [Gd]2 [Ge]2 [Gd]2 | G2 [Gc]2 [GB]2 [G,EG]2 | [B,G]2 [DFA]2 [DGB]4 | %4
w: H.~J.~E.~Holmes * * *||||
 [D^GB]2 [DGc]2 [DGB]2 [CA]2 | [CFA]2 [DFB]2 [CFA]2 [B,EG]2 | [A,EA]2 E2 G2 G2 | G2 F2 G4 | %8
w: ||||
 d2 d2 d2 ^c2 | ^c2 B2 [FB]2 [FA]2 | [DGB]2 [DGB]2 [DFA]2 D2 | [B,DE]2 [A,^CG]2 [A,DF]4 | %12
w: ||||
 [A,DF]2 [B,DG]2 [DFA]2 [DGB]2 | [DEB]2 [D^GB]2 [EAd]2 [EAc]2 | [CEB]2 [CEA]2 [B,DG]2 [G,B,G]2 | %15
w: |||
 [CEA]2 [CFB]2 [B,DG]4 |] %16
w: |
V:2
 [G,B,D]2 [F,A,D]2 [=F,G,D]2 [E,G,]2 | [^D,A,]2 [=D,B,]2 [^C,A,]2 [D,B,]2 | %2
 [E,B,]2 [^D,G,]2 [=D,G,]2 E,2 | D,2 D,2 G,4 | E,2 E,2 A,2 A,2 | D,2 D,2 ^D,2 E,2 | %6
 C,2 [C,A,]2 [D,B,D]2 [E,_B,^C]2 | [D,A,C]2 [D,CD]2[K:treble] [G,B,D]4 | %8
 [B,DG]2 [_B,DG]2 [A,EG]2 [A,EG]2 | [A,EG]2 [A,DG]2[K:bass] [D,D]2 [D,D]2 | G,2 G,,2 A,,2 B,,2 | %11
 G,,2 A,,2 D,4 | C,2 B,,2 A,,2 G,,2 | ^G,,2 E,2 A,,2 A,,2 | C,2 C,2 D,2 E,2 | C,2 D,2 G,,4 |] %16

